X: 9
T: Toss The Feathers
R: reel
M: 4/4
L: 1/8
K: Edor
EB B2 dB B2|EBBA FEFA|1 BE E2 BABd| egfe dBAF:2|2 B2 BA BABd| egfe dBAd||
Beee feee|fede feee|febe febe|fede feee|
Beed e2 de|fede faaa|b3 f a3 f|egfe dBAF||


Tune 113	Setting 21754

